X:1
T:Off to California
Z:to California
L:1/8
M:4/4
I:linebreak $
K:G
V:1 treble
V:1
 ((3DEF) |:"G" GFGB "D"AGED |"G" GBdg "C"e2 (ef) |"G" gfgd "Em"edBG | "Am"ABAG "D"E2 (DF) |$
"G" GFGB"D" AGED | "G"GBdg "C"e2 (ef) |  "G"gfgd"Em" edBG |1 "D"AGEF "G"G2 ((3DEF) :|2 "D"AGEF "G"G2 ef ||$
 "Em"gfeg "Bm"fedf | "C"edef"Em" edBf | "G"gfad"Em" edBG |  "Am"ABAG"D" E2 (DF) | $
"G"GFGB A"D"GED | "G"GBdg "C"e2 (ef) | "D"gfgd"Em" edBG |1 "D"AGEF"G" G2 (ef) :|2 "D"AGEF "G"G2 |]
